X:1 
T:Cirian's Capers #2
R:jig
Z:C. McGrew from M.Bogner's transcription of Altan
M:6/8
Q:3/8=120
K:Amix
e| ABc efe| cBA Bce| ABc efe| cBA B2e| 
   ABc efe| cBA Bce| Aaa fgd| ceB A2 :|
e| Aaa fge| cee cee| Aaa fgf| ceA B2e|
   Aaa fge| cee cee| Aaa fge| ceB A2 :|
